.svelte-kit/output/client/library/social-QQ.svg

<svg width="48" height="48" viewBox="0 0 48 48" fill="none" xmlns="http://www.w3.org/2000/svg">
<path fill-rule="evenodd" clip-rule="evenodd" d="M12 31C12 31 9.00001 35.5 8.50001 35C7.69705 34.197 8.56176 28.3785 10 24C10 24 12 25 14.5 25.5C14.5 25.5 12.7591 34.9605 18.7679 38.7415C20.7679 40 24 40 24 40C24 40 27.2321 40 29.2321 38.7415C35.2409 34.9605 33.5 25.5 33.5 25.5C36 25 38 24 38 24C39.4382 28.3785 40.303 34.197 39.5 35C39 35.5 36 31 36 31C36 31 36.2321 35.776 32.6084 38.7415C32.6084 38.7415 29.2321 41.5 24 41.5C18.7679 41.5 15.3916 38.7415 15.3916 38.7415C11.7679 35.776 12 31 12 31Z" fill="black"/>
<path fill-rule="evenodd" clip-rule="evenodd" d="M12 20C12 7 19 4 24 4C29 4 36 7 36 20C31.9672 20.7823 28.5 21.5 24 21.5C19.5 21.5 16.0328 20.7823 12 20ZM17 17.5C17 18.5 20.5 20 24 20C27.5 20 31 18.5 31 17.5C31 16.5 26 16 24 16C22 16 17 16.5 17 17.5Z" fill="black"/>
<path fill-rule="evenodd" clip-rule="evenodd" d="M35.7321 41.5C34.7321 42 27.5 42 24 41.5C29.2321 41.5 32.6084 38.7415 32.6084 38.7415C32.5267 38.8083 37.7321 40.5 35.7321 41.5Z" fill="#F9AD08"/>
<path fill-rule="evenodd" clip-rule="evenodd" d="M24 41.5C20.5 42 13.2679 42 12.2679 41.5C10.2679 40.5 15.4733 38.8083 15.3916 38.7415C15.3916 38.7415 18.7679 41.5 24 41.5Z" fill="#F8AE08"/>
<path fill-rule="evenodd" clip-rule="evenodd" d="M10 24C10.5643 22.282 11.4364 20.9863 12 20C16.0328 20.7823 19.5 21.5 24 21.5C28.5 21.5 31.9672 20.7823 36 20C36.5636 20.9863 37.4357 22.282 38 24C38 24 36 25 33.5 25.5C31 26 28 26.5 24 26.5C23.2101 26.5 22.4591 26.4805 21.7433 26.4453C21.7433 27.9601 21.7433 28.9482 21.7588 30.8189C21.7588 30.9077 21.7017 30.9866 21.6162 31.0108C19.9263 31.4895 18.0374 31.4737 16.6208 30.5572C16.5663 30.522 16.5329 30.4615 16.5329 30.3966C16.5 28.5119 16.5006 27.9624 16.5347 25.8769C15.8178 25.757 15.1424 25.6285 14.5 25.5C12 25 10 24 10 24Z" fill="#EA1C26"/>
<path fill-rule="evenodd" clip-rule="evenodd" d="M17 17.5C17 18.5 20.5 20 24 20C27.5 20 31 18.5 31 17.5C31 16.5 26 16 24 16C22 16 17 16.5 17 17.5Z" fill="#F9AD08"/>
<path fill-rule="evenodd" clip-rule="evenodd" d="M14.5 25.5C15.1424 25.6285 15.8178 25.757 16.5347 25.8769C16.5006 27.9624 16.5 28.5119 16.5329 30.3966C16.5329 30.4615 16.5663 30.522 16.6208 30.5572C18.0374 31.4737 19.9263 31.4895 21.6162 31.0108C21.7017 30.9866 21.7588 30.9077 21.7588 30.8189C21.7433 28.9482 21.7433 27.9601 21.7433 26.4453C22.4591 26.4805 23.2101 26.5 24 26.5C28 26.5 31 26 33.5 25.5C33.5 25.5 35.2409 34.9605 29.2321 38.7415C27.2321 40 24 40 24 40C24 40 20.7679 40 18.7679 38.7415C12.7591 34.9605 14.5 25.5 14.5 25.5Z" fill="white"/>
<path d="M21 14C22.1046 14 23 12.6569 23 11C23 9.34315 22.1046 8 21 8C19.8954 8 19 9.34315 19 11C19 12.6569 19.8954 14 21 14Z" fill="white"/>
<path d="M27 14C28.1046 14 29 12.6569 29 11C29 9.34315 28.1046 8 27 8C25.8954 8 25 9.34315 25 11C25 12.6569 25.8954 14 27 14Z" fill="white"/>
<path d="M21 12.4375C21.5523 12.4375 22 11.8918 22 11.2188C22 10.5457 21.5523 10 21 10C20.4477 10 20 10.5457 20 11.2188C20 11.8918 20.4477 12.4375 21 12.4375Z" fill="black"/>
<path d="M26 11C26.5 10.5 27.5 10.5 28 11" stroke="black" stroke-width="0.7" stroke-linecap="round" stroke-linejoin="round"/>
</svg>

<svg width="48" height="48" fill="none" xmlns="http://www.w3.org/2000/svg"><path fill-rule="evenodd" clip-rule="evenodd" d="M12 31s-3 4.5-3.5 4c-.803-.803.062-6.622 1.5-11 0 0 2 1 4.5 1.5 0 0-1.74 9.46 4.268 13.242C20.768 40 24 40 24 40s3.232 0 5.232-1.258C35.241 34.96 33.5 25.5 33.5 25.5 36 25 38 24 38 24c1.438 4.378 2.303 10.197 1.5 11-.5.5-3.5-4-3.5-4s.232 4.776-3.392 7.742c0 0-3.376 2.758-8.608 2.758-5.232 0-8.608-2.758-8.608-2.758C11.768 35.776 12 31 12 31ZM12 20C12 7 19 4 24 4s12 3 12 16c-4.033.782-7.5 1.5-12 1.5s-7.967-.718-12-1.5Zm5-2.5c0 1 3.5 2.5 7 2.5s7-1.5 7-2.5-5-1.5-7-1.5-7 .5-7 1.5Z" fill="#000"/><path fill-rule="evenodd" clip-rule="evenodd" d="M35.732 41.5c-1 .5-8.232.5-11.732 0 5.232 0 8.608-2.758 8.608-2.758-.081.066 5.124 1.758 3.124 2.758Z" fill="#F9AD08"/><path fill-rule="evenodd" clip-rule="evenodd" d="M24 41.5c-3.5.5-10.732.5-11.732 0-2-1 3.205-2.692 3.124-2.758 0 0 3.376 2.758 8.608 2.758Z" fill="#F8AE08"/><path fill-rule="evenodd" clip-rule="evenodd" d="M10 24c.564-1.718 1.436-3.014 2-4 4.033.782 7.5 1.5 12 1.5s7.967-.718 12-1.5c.564.986 1.436 2.282 2 4 0 0-2 1-4.5 1.5s-5.5 1-9.5 1c-.79 0-1.54-.02-2.257-.055 0 1.515 0 2.503.016 4.374a.198.198 0 0 1-.143.192c-1.69.479-3.579.463-4.995-.454a.192.192 0 0 1-.088-.16c-.033-1.885-.032-2.435.002-4.52A64.765 64.765 0 0 1 14.5 25.5C12 25 10 24 10 24Z" fill="#EA1C26"/><path fill-rule="evenodd" clip-rule="evenodd" d="M17 17.5c0 1 3.5 2.5 7 2.5s7-1.5 7-2.5-5-1.5-7-1.5-7 .5-7 1.5Z" fill="#F9AD08"/><path fill-rule="evenodd" clip-rule="evenodd" d="M14.5 25.5c.642.128 1.318.257 2.035.377a101.651 101.651 0 0 0-.002 4.52c0 .065.033.125.088.16 1.416.917 3.305.933 4.995.454a.198.198 0 0 0 .143-.192c-.016-1.87-.016-2.859-.016-4.374.716.035 1.467.055 2.257.055 4 0 7-.5 9.5-1 0 0 1.74 9.46-4.268 13.242C27.232 40 24 40 24 40s-3.232 0-5.232-1.258C12.759 34.96 14.5 25.5 14.5 25.5Z" fill="#fff"/><path d="M21 14c1.105 0 2-1.343 2-3s-.895-3-2-3-2 1.343-2 3 .895 3 2 3ZM27 14c1.105 0 2-1.343 2-3s-.895-3-2-3-2 1.343-2 3 .895 3 2 3Z" fill="#fff"/><path d="M21 12.438c.552 0 1-.546 1-1.22 0-.672-.448-1.218-1-1.218s-1 .546-1 1.219.448 1.219 1 1.219Z" fill="#000"/><path d="M26 11c.5-.5 1.5-.5 2 0" stroke="#000" stroke-width=".7" stroke-linecap="round" stroke-linejoin="round"/></svg>
